X: 1
T: Hinba
M: 7/4
L: 1/8
R: reel
K: Bmin
A|BBfd eed e2 f dcBA|ABfB aaf e2f dfef|BBfd eed e2 f dcBA|ABfB aaf e2f dfef|
BBfd eed e2 f dcBA|ABfB aaf e2f dfef|BBfd eed e2 f dcBf|a2bf2de3f f/e/d ef|
|:[M:8/4]a2fa2be3d d/e/f efdc|[M:6/4] ABd c2dB3 AAf|[M:8/4]a2fa2be3d d/e/f efdc|[M:7/4]cdBd2eB2A dABB2:||
d2BB2d eed dB/d/e fa|f2ae2f ABA dABB2|d2BB2d eed dB/d/e fa|1abfa2efa BAA fef:|abfa2efa BAA FED|F2
